web/packages/design/src/ResourceIcon/assets/prometheus.svg

<svg width="72" height="72" viewBox="0 0 72 72" fill="none" xmlns="http://www.w3.org/2000/svg">
<g clip-path="url(#clip0_17033_15323)">
<path d="M36.0003 0C16.1187 0 0 16.1171 0 35.9997C0 55.8816 16.1187 72 36.0003 72C55.8819 72 72 55.8816 72 35.9997C72 16.1171 55.8813 0 36.0003 0ZM36.0003 67.3775C30.3436 67.3775 25.7574 63.5987 25.7574 58.9387H46.2432C46.2432 63.5981 41.657 67.3775 36.0003 67.3775ZM52.9182 56.144H19.0805V50.0082H52.9189L52.9182 56.144ZM52.7969 46.8501H19.177C19.0652 46.7211 18.9509 46.5941 18.8429 46.4632C15.3792 42.2575 14.5635 40.0618 13.7713 37.8243C13.758 37.7506 17.9713 38.6851 20.9591 39.3573C20.9591 39.3573 22.4965 39.7131 24.7441 40.1228C22.586 37.593 21.3047 34.3771 21.3047 31.09C21.3047 23.8736 26.8393 17.5675 24.8426 12.4704C26.786 12.6286 28.8647 16.572 29.0051 22.7376C31.0711 19.8826 31.9357 14.6686 31.9357 11.4717C31.9357 8.16179 34.1167 4.31691 36.2983 4.1854C34.3536 7.39053 36.8021 10.1382 38.9786 16.9544C39.7949 19.5147 39.6908 23.8234 40.321 26.5558C40.53 20.8806 41.5058 12.6 45.106 9.74117C43.5178 13.3415 45.3411 17.8464 46.5882 20.0122C48.6001 23.5064 49.8199 26.1537 49.8199 31.1605C49.8199 34.5175 48.5804 37.6782 46.4897 40.1489C48.867 39.7029 50.5086 39.3007 50.5086 39.3007L58.2287 37.7944C58.2293 37.7938 57.1074 42.4074 52.7969 46.8501Z" fill="#E6522C"/>
</g>
<defs>
<clipPath id="clip0_17033_15323">
<rect width="72" height="72" fill="white"/>
</clipPath>
</defs>
</svg>

<svg xmlns="http://www.w3.org/2000/svg" width="72" height="72" fill="none" viewBox="0 0 72 72"><g clip-path="url(#clip0_17033_15323)"><path fill="#e6522c" d="M36 0C16.12 0 0 16.117 0 36s16.119 36 36 36c19.882 0 36-16.118 36-36S55.881 0 36 0m0 67.378c-5.656 0-10.243-3.78-10.243-8.44h20.486c0 4.66-4.586 8.44-10.243 8.44m16.918-11.234H19.081v-6.136h33.838zm-.121-9.294h-33.62q-.17-.192-.334-.387c-3.464-4.206-4.28-6.401-5.072-8.639-.013-.073 4.2.861 7.188 1.533 0 0 1.538.356 3.785.766-2.158-2.53-3.44-5.746-3.44-9.033 0-7.216 5.535-13.522 3.539-18.62 1.943.159 4.022 4.102 4.162 10.268 2.066-2.855 2.93-8.07 2.93-11.266 0-3.31 2.182-7.155 4.363-7.287-1.944 3.206.504 5.953 2.68 12.77.817 2.56.713 6.868 1.343 9.6.209-5.674 1.185-13.955 4.785-16.814-1.588 3.6.235 8.105 1.482 10.271 2.012 3.494 3.232 6.142 3.232 11.148 0 3.357-1.24 6.518-3.33 8.989a83 83 0 0 0 4.019-.848l7.72-1.507s-1.122 4.613-5.432 9.056"/></g><defs><clipPath id="clip0_17033_15323"><path fill="#fff" d="M0 0h72v72H0z"/></clipPath></defs></svg>
